; generated by PrusaSlicer 2.1.0+win64 on 2019-11-26 at 22:30:51 UTC

; 

; external perimeters extrusion width = 0.60mm
; perimeters extrusion width = 0.50mm
; infill extrusion width = 0.50mm
; solid infill extrusion width = 0.50mm
; top infill extrusion width = 0.45mm
; first layer extrusion width = 0.42mm

M73 P0 R305
M73 Q0 S308
M201 X1000 Y1000 Z1000 E5000 ; sets maximum accelerations, mm/sec^2
M203 X200 Y200 Z12 E120 ; sets maximum feedrates, mm/sec
M204 P1250 R1250 T1250 ; sets acceleration (P, T) and retract acceleration (R), mm/sec^2
M205 X8.00 Y8.00 Z0.40 E1.50 ; sets the jerk limits, mm/sec
M205 S0 T0 ; sets the minimum extruding and travel feed rate, mm/sec
M107
M862.3 P "MK3S" ; printer model check
M862.1 P0.4 ; nozzle diameter check
M115 U3.8.0 ; tell printer latest fw version
G90 ; use absolute coordinates
M83 ; extruder relative mode
M104 S215 ; set extruder temp
M140 S60 ; set bed temp
M190 S60 ; wait for bed temp
M109 S215 ; wait for extruder temp
G28 W ; home all without mesh bed level
G80 ; mesh bed leveling
G1 Y-3.0 F1000.0 ; go outside print area
G92 E0.0
G1 X60.0 E9.0 F1000.0 ; intro line
M73 Q0 S308
M73 P0 R305
G1 X100.0 E12.5 F1000.0 ; intro line
G92 E0.0
M221 S95
G21 ; set units to millimeters
G90 ; use absolute coordinates
M83 ; use relative distances for extrusion
M900 K30 ; Filament gcode
;BEFORE_LAYER_CHANGE
G92 E0.0
;0.2


G1 E-0.80000 F2100.00000
G1 Z0.600 F10800.000
;AFTER_LAYER_CHANGE
;0.2
G1 X14.315 Y22.921
G1 Z0.200
G1 E0.80000 F2100.00000
M204 S1000
G1 F1200
G1 X14.994 Y22.811 E0.02157
G1 X235.004 Y22.811 E6.89824
G1 X235.837 Y22.978 E0.02664
G1 X236.542 Y23.447 E0.02653
G1 X237.017 Y24.151 E0.02664
G1 X237.188 Y24.983 E0.02664
G1 X237.189 Y185.011 E5.01756
G1 X237.127 Y185.514 E0.01589
G1 X236.952 Y185.990 E0.01589
G1 X236.670 Y186.415 E0.01601
G1 X236.299 Y186.761 E0.01589
G1 X235.685 Y187.079 E0.02168
G1 X235.006 Y187.189 E0.02157
G1 X14.996 Y187.189 E6.89824
G1 X14.489 Y187.128 E0.01601
G1 X14.010 Y186.952 E0.01601
G1 X13.585 Y186.670 E0.01601
G1 X13.239 Y186.299 E0.01589
G1 X12.921 Y185.685 E0.02168
G1 X12.811 Y185.006 E0.02157
G1 X12.811 Y24.993 E5.01710
G1 X12.872 Y24.489 E0.01589
G1 X13.048 Y24.010 E0.01601
G1 X13.330 Y23.585 E0.01601
G1 X13.701 Y23.239 E0.01589
G1 X14.262 Y22.949 E0.01980
G1 F8640
G1 X14.994 Y22.811 E-0.17206
G1 X17.540 Y22.811 E-0.58794
G1 E-0.04000 F2100.00000
G1 Z0.800 F10800.000
G1 X26.413 Y36.413
G1 Z0.200
G1 E0.80000 F2100.00000
G1 F1200
G1 X223.587 Y36.413 E6.18226
G1 X223.587 Y173.587 E4.30100
G1 X26.413 Y173.587 E6.18226
M73 Q0 S307
M73 P0 R304
G1 X26.413 Y36.473 E4.29912
G1 X26.790 Y36.790 F10800.000
G1 F1200
G1 X223.210 Y36.790 E6.15861
G1 X223.210 Y173.210 E4.27735
G1 X26.790 Y173.210 E6.15861
G1 X26.790 Y36.850 E4.27547
G1 X26.664 Y36.410 F10800.000
G1 F8640
G1 X30.081 Y36.849 E-0.76000
G1 E-0.04000 F2100.00000
G1 Z0.800 F10800.000
G1 X15.587 Y25.587
G1 Z0.200
G1 E0.80000 F2100.00000
G1 F1200
G1 X234.413 Y25.587 E6.86113
G1 X234.413 Y184.413 E4.97987
G1 X15.587 Y184.413 E6.86113
M73 Q0 S306
M73 P0 R303
G1 X15.587 Y25.647 E4.97799
G1 X15.210 Y25.210 F10800.000
G1 F1200
G1 X234.790 Y25.210 E6.88478
G1 X234.790 Y184.790 E5.00352
G1 X15.210 Y184.790 E6.88478
G1 X15.210 Y25.270 E5.00164
G1 X15.601 Y25.293 F10800.000
G1 F8640
G1 X18.501 Y25.269 E-0.76000
G1 E-0.04000 F2100.00000
G1 Z0.800 F10800.000
G1 X26.300 Y173.325
G1 Z0.200
G1 E0.80000 F2100.00000
G1 F1200
G1 X15.870 Y162.895 E0.46279
G1 X15.870 Y162.361 E0.01674
G1 X26.130 Y172.621 E0.45526
G1 X26.130 Y172.088 E0.01674
G1 X15.870 Y161.827 E0.45526
G1 X15.870 Y161.294 E0.01674
G1 X26.130 Y171.554 E0.45526
G1 X26.130 Y171.020 E0.01674
G1 X15.870 Y160.760 E0.45526
G1 X15.870 Y160.227 E0.01674
G1 X26.130 Y170.487 E0.45526
G1 X26.130 Y169.953 E0.01674
G1 X15.870 Y159.693 E0.45526
G1 X15.870 Y159.159 E0.01674
G1 X26.130 Y169.420 E0.45526
G1 X26.130 Y168.886 E0.01674
G1 X15.870 Y158.626 E0.45526
G1 X15.870 Y158.092 E0.01674
G1 X26.130 Y168.352 E0.45526
G1 X26.130 Y167.819 E0.01674
G1 X15.870 Y157.558 E0.45526
G1 X15.870 Y157.025 E0.01674
G1 X26.130 Y167.285 E0.45526
G1 X26.130 Y166.751 E0.01674
G1 X15.870 Y156.491 E0.45526
G1 X15.870 Y155.958 E0.01674
G1 X26.130 Y166.218 E0.45526
G1 X26.130 Y165.684 E0.01674
G1 X15.870 Y155.424 E0.45526
G1 X15.870 Y154.890 E0.01674
G1 X26.130 Y165.151 E0.45526
M73 Q1 S305
G1 X26.130 Y164.617 E0.01674
G1 X15.870 Y154.357 E0.45526
M73 P1 R302
G1 X15.870 Y153.823 E0.01674
G1 X26.130 Y164.083 E0.45526
G1 X26.130 Y163.550 E0.01674
G1 X15.870 Y153.289 E0.45526
G1 X15.870 Y152.756 E0.01674
G1 X26.130 Y163.016 E0.45526
G1 X26.130 Y162.482 E0.01674
G1 X15.870 Y152.222 E0.45526
G1 X15.870 Y151.689 E0.01674
G1 X26.130 Y161.949 E0.45526
G1 X26.130 Y161.415 E0.01674
G1 X15.870 Y151.155 E0.45526
G1 X15.870 Y150.621 E0.01674
G1 X26.130 Y160.882 E0.45526
G1 X26.130 Y160.348 E0.01674
G1 X15.870 Y150.088 E0.45526
G1 X15.870 Y149.554 E0.01674
G1 X26.130 Y159.814 E0.45526
G1 X26.130 Y159.281 E0.01674
G1 X15.870 Y149.020 E0.45526
G1 X15.870 Y148.487 E0.01674
G1 X26.130 Y158.747 E0.45526
G1 X26.130 Y158.213 E0.01674
G1 X15.870 Y147.953 E0.45526
G1 X15.870 Y147.420 E0.01674
G1 X26.130 Y157.680 E0.45526
G1 X26.130 Y157.146 E0.01674
G1 X15.870 Y146.886 E0.45526
G1 X15.870 Y146.352 E0.01674
G1 X26.130 Y156.613 E0.45526
G1 X26.130 Y156.079 E0.01674
G1 X15.870 Y145.819 E0.45526
G1 X15.870 Y145.285 E0.01674
G1 X26.130 Y155.545 E0.45526
G1 X26.130 Y155.012 E0.01674
G1 X15.870 Y144.751 E0.45526
G1 X15.870 Y144.218 E0.01674
G1 X26.130 Y154.478 E0.45526
G1 X26.130 Y153.944 E0.01674
G1 X15.870 Y143.684 E0.45526
G1 X15.870 Y143.151 E0.01674
G1 X26.130 Y153.411 E0.45526
G1 X26.130 Y152.877 E0.01674
G1 X15.870 Y142.617 E0.45526
G1 X15.870 Y142.083 E0.01674
G1 X26.130 Y152.344 E0.45526
G1 X26.130 Y151.810 E0.01674
G1 X15.870 Y141.550 E0.45526
G1 X15.870 Y141.016 E0.01674
G1 X26.130 Y151.276 E0.45526
G1 X26.130 Y150.743 E0.01674
G1 X15.870 Y140.482 E0.45526
G1 X15.870 Y139.949 E0.01674
G1 X26.130 Y150.209 E0.45526
G1 X26.130 Y149.675 E0.01674
G1 X15.870 Y139.415 E0.45526
G1 X15.870 Y138.882 E0.01674
G1 X26.130 Y149.142 E0.45526
G1 X26.130 Y148.608 E0.01674
G1 X15.870 Y138.348 E0.45526
G1 X15.870 Y137.814 E0.01674
G1 X26.130 Y148.075 E0.45526
G1 X26.130 Y147.541 E0.01674
G1 X15.870 Y137.281 E0.45526
G1 X15.870 Y136.747 E0.01674
G1 X26.130 Y147.007 E0.45526
G1 X26.130 Y146.474 E0.01674
G1 X15.870 Y136.213 E0.45526
G1 X15.870 Y135.680 E0.01674
G1 X26.130 Y145.940 E0.45526
G1 X26.130 Y145.406 E0.01674
G1 X15.870 Y135.146 E0.45526
G1 X15.870 Y134.613 E0.01674
G1 X26.130 Y144.873 E0.45526
G1 X26.130 Y144.339 E0.01674
G1 X15.870 Y134.079 E0.45526
G1 X15.870 Y133.545 E0.01674
G1 X26.130 Y143.806 E0.45526
G1 X26.130 Y143.272 E0.01674
G1 X15.870 Y133.012 E0.45526
G1 X15.870 Y132.478 E0.01674
G1 X26.130 Y142.738 E0.45526
G1 X26.130 Y142.205 E0.01674
G1 X15.870 Y131.944 E0.45526
G1 X15.870 Y131.411 E0.01674
G1 X26.130 Y141.671 E0.45526
G1 X26.130 Y141.137 E0.01674
G1 X15.870 Y130.877 E0.45526
G1 X15.870 Y130.344 E0.01674
G1 X26.130 Y140.604 E0.45526
G1 X26.130 Y140.070 E0.01674
G1 X15.870 Y129.810 E0.45526
G1 X15.870 Y129.276 E0.01674
G1 X26.130 Y139.537 E0.45526
G1 X26.130 Y139.003 E0.01674
G1 X15.870 Y128.743 E0.45526
G1 X15.870 Y128.209 E0.01674
G1 X26.130 Y138.469 E0.45526
G1 X26.130 Y137.936 E0.01674
G1 X15.870 Y127.675 E0.45526
G1 X15.870 Y127.142 E0.01674
G1 X26.130 Y137.402 E0.45526
G1 X26.130 Y136.868 E0.01674
G1 X15.870 Y126.608 E0.45526
G1 X15.870 Y126.074 E0.01674
G1 X26.130 Y136.335 E0.45526
G1 X26.130 Y135.801 E0.01674
G1 X15.870 Y125.541 E0.45526
G1 X15.870 Y125.007 E0.01674
G1 X26.130 Y135.268 E0.45526
G1 X26.130 Y134.734 E0.01674
G1 X15.870 Y124.474 E0.45526
G1 X15.870 Y123.940 E0.01674
G1 X26.130 Y134.200 E0.45526
G1 X26.130 Y133.667 E0.01674
G1 X15.870 Y123.406 E0.45526
G1 X15.870 Y122.873 E0.01674
G1 X26.130 Y133.133 E0.45526
G1 X26.130 Y132.599 E0.01674
G1 X15.870 Y122.339 E0.45526
G1 X15.870 Y121.805 E0.01674
G1 X26.130 Y132.066 E0.45526
G1 X26.130 Y131.532 E0.01674
G1 X15.870 Y121.272 E0.45526
G1 X15.870 Y120.738 E0.01674
G1 X26.130 Y130.998 E0.45526
G1 X26.130 Y130.465 E0.01674
G1 X15.870 Y120.205 E0.45526
G1 X15.870 Y119.671 E0.01674
G1 X26.130 Y129.931 E0.45526
G1 X26.130 Y129.398 E0.01674
G1 X15.870 Y119.137 E0.45526
G1 X15.870 Y118.604 E0.01674
G1 X26.130 Y128.864 E0.45526
G1 X26.130 Y128.330 E0.01674
G1 X15.870 Y118.070 E0.45526
G1 X15.870 Y117.536 E0.01674
G1 X26.130 Y127.797 E0.45526
G1 X26.130 Y127.263 E0.01674
G1 X15.870 Y117.003 E0.45526
G1 X15.870 Y116.469 E0.01674
G1 X26.130 Y126.729 E0.45526
G1 X26.130 Y126.196 E0.01674
G1 X15.870 Y115.936 E0.45526
G1 X15.870 Y115.402 E0.01674
G1 X26.130 Y125.662 E0.45526
G1 X26.130 Y125.129 E0.01674
G1 X15.870 Y114.868 E0.45526
G1 X15.870 Y114.335 E0.01674
G1 X26.130 Y124.595 E0.45526
G1 X26.130 Y124.061 E0.01674
G1 X15.870 Y113.801 E0.45526
G1 X15.870 Y113.267 E0.01674
G1 X26.130 Y123.528 E0.45526
G1 X26.130 Y122.994 E0.01674
G1 X15.870 Y112.734 E0.45526
M73 Q1 S304
G1 X15.870 Y112.200 E0.01674
G1 X26.130 Y122.460 E0.45526
M73 P1 R301
G1 X26.130 Y121.927 E0.01674
G1 X15.870 Y111.667 E0.45526
G1 X15.870 Y111.133 E0.01674
G1 X26.130 Y121.393 E0.45526
G1 X26.130 Y120.860 E0.01674
G1 X15.870 Y110.599 E0.45526
G1 X15.870 Y110.066 E0.01674
G1 X26.130 Y120.326 E0.45526
G1 X26.130 Y119.792 E0.01674
G1 X15.870 Y109.532 E0.45526
G1 X15.870 Y108.998 E0.01674
G1 X26.130 Y119.259 E0.45526
G1 X26.130 Y118.725 E0.01674
G1 X15.870 Y108.465 E0.45526
G1 X15.870 Y107.931 E0.01674
G1 X26.130 Y118.191 E0.45526
G1 X26.130 Y117.658 E0.01674
G1 X15.870 Y107.398 E0.45526
G1 X15.870 Y106.864 E0.01674
G1 X26.130 Y117.124 E0.45526
G1 X26.130 Y116.591 E0.01674
G1 X15.870 Y106.330 E0.45526
G1 X15.870 Y105.797 E0.01674
G1 X26.130 Y116.057 E0.45526
G1 X26.130 Y115.523 E0.01674
G1 X15.870 Y105.263 E0.45526
G1 X15.870 Y104.729 E0.01674
G1 X26.130 Y114.990 E0.45526
G1 X26.130 Y114.456 E0.01674
G1 X15.870 Y104.196 E0.45526
G1 X15.870 Y103.662 E0.01674
G1 X26.130 Y113.922 E0.45526
G1 X26.130 Y113.389 E0.01674
G1 X15.870 Y103.129 E0.45526
G1 X15.870 Y102.595 E0.01674
G1 X26.130 Y112.855 E0.45526
G1 X26.130 Y112.322 E0.01674
G1 X15.870 Y102.061 E0.45526
G1 X15.870 Y101.528 E0.01674
G1 X26.130 Y111.788 E0.45526
G1 X26.130 Y111.254 E0.01674
G1 X15.870 Y100.994 E0.45526
G1 X15.870 Y100.460 E0.01674
G1 X26.130 Y110.721 E0.45526
G1 X26.130 Y110.187 E0.01674
G1 X15.870 Y99.927 E0.45526
G1 X15.870 Y99.393 E0.01674
G1 X26.130 Y109.653 E0.45526
G1 X26.130 Y109.120 E0.01674
G1 X15.870 Y98.860 E0.45526
G1 X15.870 Y98.326 E0.01674
G1 X26.130 Y108.586 E0.45526
G1 X26.130 Y108.053 E0.01674
G1 X15.870 Y97.792 E0.45526
G1 X15.870 Y97.259 E0.01674
G1 X26.130 Y107.519 E0.45526
G1 X26.130 Y106.985 E0.01674
G1 X15.870 Y96.725 E0.45526
G1 X15.870 Y96.191 E0.01674
G1 X26.130 Y106.452 E0.45526
G1 X26.130 Y105.918 E0.01674
G1 X15.870 Y95.658 E0.45526
G1 X15.870 Y95.124 E0.01674
G1 X26.130 Y105.384 E0.45526
G1 X26.130 Y104.851 E0.01674
G1 X15.870 Y94.591 E0.45526
G1 X15.870 Y94.057 E0.01674
G1 X26.130 Y104.317 E0.45526
G1 X26.130 Y103.784 E0.01674
G1 X15.870 Y93.523 E0.45526
G1 X15.870 Y92.990 E0.01674
G1 X26.130 Y103.250 E0.45526
G1 X26.130 Y102.716 E0.01674
G1 X15.870 Y92.456 E0.45526
G1 X15.870 Y91.922 E0.01674
G1 X26.130 Y102.183 E0.45526
G1 X26.130 Y101.649 E0.01674
G1 X15.870 Y91.389 E0.45526
G1 X15.870 Y90.855 E0.01674
G1 X26.130 Y101.115 E0.45526
G1 X26.130 Y100.582 E0.01674
G1 X15.870 Y90.322 E0.45526
G1 X15.870 Y89.788 E0.01674
G1 X26.130 Y100.048 E0.45526
G1 X26.130 Y99.515 E0.01674
G1 X15.870 Y89.254 E0.45526
G1 X15.870 Y88.721 E0.01674
G1 X26.130 Y98.981 E0.45526
G1 X26.130 Y98.447 E0.01674
G1 X15.870 Y88.187 E0.45526
G1 X15.870 Y87.653 E0.01674
G1 X26.130 Y97.914 E0.45526
G1 X26.130 Y97.380 E0.01674
G1 X15.870 Y87.120 E0.45526
G1 X15.870 Y86.586 E0.01674
G1 X26.130 Y96.846 E0.45526
G1 X26.130 Y96.313 E0.01674
G1 X15.870 Y86.052 E0.45526
G1 X15.870 Y85.519 E0.01674
G1 X26.130 Y95.779 E0.45526
G1 X26.130 Y95.246 E0.01674
G1 X15.870 Y84.985 E0.45526
G1 X15.870 Y84.452 E0.01674
G1 X26.130 Y94.712 E0.45526
G1 X26.130 Y94.178 E0.01674
G1 X15.870 Y83.918 E0.45526
G1 X15.870 Y83.384 E0.01674
G1 X26.130 Y93.645 E0.45526
G1 X26.130 Y93.111 E0.01674
G1 X15.870 Y82.851 E0.45526
G1 X15.870 Y82.317 E0.01674
G1 X26.130 Y92.577 E0.45526
G1 X26.130 Y92.044 E0.01674
G1 X15.870 Y81.783 E0.45526
G1 X15.870 Y81.250 E0.01674
G1 X26.130 Y91.510 E0.45526
G1 X26.130 Y90.977 E0.01674
G1 X15.870 Y80.716 E0.45526
G1 X15.870 Y80.183 E0.01674
G1 X26.130 Y90.443 E0.45526
G1 X26.130 Y89.909 E0.01674
G1 X15.870 Y79.649 E0.45526
G1 X15.870 Y79.115 E0.01674
G1 X26.130 Y89.376 E0.45526
G1 X26.130 Y88.842 E0.01674
G1 X15.870 Y78.582 E0.45526
G1 X15.870 Y78.048 E0.01674
G1 X26.130 Y88.308 E0.45526
G1 X26.130 Y87.775 E0.01674
G1 X15.870 Y77.514 E0.45526
G1 X15.870 Y76.981 E0.01674
G1 X26.130 Y87.241 E0.45526
G1 X26.130 Y86.707 E0.01674
G1 X15.870 Y76.447 E0.45526
G1 X15.870 Y75.914 E0.01674
G1 X26.130 Y86.174 E0.45526
G1 X26.130 Y85.640 E0.01674
G1 X15.870 Y75.380 E0.45526
G1 X15.870 Y74.846 E0.01674
G1 X26.130 Y85.107 E0.45526
G1 X26.130 Y84.573 E0.01674
G1 X15.870 Y74.313 E0.45526
G1 X15.870 Y73.779 E0.01674
G1 X26.130 Y84.039 E0.45526
G1 X26.130 Y83.506 E0.01674
G1 X15.870 Y73.245 E0.45526
G1 X15.870 Y72.712 E0.01674
G1 X26.130 Y82.972 E0.45526
G1 X26.130 Y82.438 E0.01674
G1 X15.870 Y72.178 E0.45526
G1 X15.870 Y71.645 E0.01674
G1 X26.130 Y81.905 E0.45526
G1 X26.130 Y81.371 E0.01674
G1 X15.870 Y71.111 E0.45526
G1 X15.870 Y70.577 E0.01674
G1 X26.130 Y80.838 E0.45526
M73 Q1 S303
G1 X26.130 Y80.304 E0.01674
G1 X15.870 Y70.044 E0.45526
M73 P1 R300
G1 X15.870 Y69.510 E0.01674
G1 X26.130 Y79.770 E0.45526
G1 X26.130 Y79.237 E0.01674
G1 X15.870 Y68.976 E0.45526
G1 X15.870 Y68.443 E0.01674
G1 X26.130 Y78.703 E0.45526
G1 X26.130 Y78.169 E0.01674
G1 X15.870 Y67.909 E0.45526
G1 X15.870 Y67.376 E0.01674
G1 X26.130 Y77.636 E0.45526
G1 X26.130 Y77.102 E0.01674
G1 X15.870 Y66.842 E0.45526
G1 X15.870 Y66.308 E0.01674
G1 X26.130 Y76.569 E0.45526
G1 X26.130 Y76.035 E0.01674
G1 X15.870 Y65.775 E0.45526
G1 X15.870 Y65.241 E0.01674
G1 X26.130 Y75.501 E0.45526
G1 X26.130 Y74.968 E0.01674
G1 X15.870 Y64.707 E0.45526
G1 X15.870 Y64.174 E0.01674
G1 X26.130 Y74.434 E0.45526
G1 X26.130 Y73.900 E0.01674
G1 X15.870 Y63.640 E0.45526
G1 X15.870 Y63.107 E0.01674
G1 X26.130 Y73.367 E0.45526
G1 X26.130 Y72.833 E0.01674
G1 X15.870 Y62.573 E0.45526
G1 X15.870 Y62.039 E0.01674
G1 X26.130 Y72.300 E0.45526
G1 X26.130 Y71.766 E0.01674
G1 X15.870 Y61.506 E0.45526
G1 X15.870 Y60.972 E0.01674
G1 X26.130 Y71.232 E0.45526
G1 X26.130 Y70.699 E0.01674
G1 X15.870 Y60.438 E0.45526
G1 X15.870 Y59.905 E0.01674
G1 X26.130 Y70.165 E0.45526
G1 X26.130 Y69.631 E0.01674
G1 X15.870 Y59.371 E0.45526
G1 X15.870 Y58.838 E0.01674
G1 X26.130 Y69.098 E0.45526
G1 X26.130 Y68.564 E0.01674
G1 X15.870 Y58.304 E0.45526
G1 X15.870 Y57.770 E0.01674
G1 X26.130 Y68.031 E0.45526
G1 X26.130 Y67.497 E0.01674
G1 X15.870 Y57.237 E0.45526
G1 X15.870 Y56.703 E0.01674
G1 X26.130 Y66.963 E0.45526
G1 X26.130 Y66.430 E0.01674
G1 X15.870 Y56.169 E0.45526
G1 X15.870 Y55.636 E0.01674
G1 X26.130 Y65.896 E0.45526
G1 X26.130 Y65.362 E0.01674
G1 X15.870 Y55.102 E0.45526
G1 X15.870 Y54.569 E0.01674
G1 X26.130 Y64.829 E0.45526
G1 X26.130 Y64.295 E0.01674
G1 X15.870 Y54.035 E0.45526
G1 X15.870 Y53.501 E0.01674
G1 X26.130 Y63.762 E0.45526
G1 X26.130 Y63.228 E0.01674
G1 X15.870 Y52.968 E0.45526
G1 X15.870 Y52.434 E0.01674
G1 X26.130 Y62.694 E0.45526
G1 X26.130 Y62.161 E0.01674
G1 X15.870 Y51.900 E0.45526
G1 X15.870 Y51.367 E0.01674
G1 X26.130 Y61.627 E0.45526
G1 X26.130 Y61.093 E0.01674
G1 X15.870 Y50.833 E0.45526
G1 X15.870 Y50.300 E0.01674
G1 X26.130 Y60.560 E0.45526
G1 X26.130 Y60.026 E0.01674
G1 X15.870 Y49.766 E0.45526
G1 X15.870 Y49.232 E0.01674
G1 X26.130 Y59.493 E0.45526
G1 X26.130 Y58.959 E0.01674
G1 X15.870 Y48.699 E0.45526
G1 X15.870 Y48.165 E0.01674
G1 X26.130 Y58.425 E0.45526
G1 X26.130 Y57.892 E0.01674
G1 X15.870 Y47.631 E0.45526
G1 X15.870 Y47.098 E0.01674
G1 X26.130 Y57.358 E0.45526
G1 X26.130 Y56.824 E0.01674
G1 X15.870 Y46.564 E0.45526
G1 X15.870 Y46.031 E0.01674
