; generated by PrusaSlicer 2.1.0+win64 on 2019-11-24 at 21:17:25 UTC

; 

; external perimeters extrusion width = 0.60mm
; perimeters extrusion width = 0.50mm
; infill extrusion width = 0.50mm
; solid infill extrusion width = 0.50mm
; top infill extrusion width = 0.45mm
; first layer extrusion width = 0.42mm

M73 P0 R218
M73 Q0 S220
M201 X1000 Y1000 Z1000 E5000 ; sets maximum accelerations, mm/sec^2
M203 X200 Y200 Z12 E120 ; sets maximum feedrates, mm/sec
M204 P1250 R1250 T1250 ; sets acceleration (P, T) and retract acceleration (R), mm/sec^2
M205 X8.00 Y8.00 Z0.40 E1.50 ; sets the jerk limits, mm/sec
M205 S0 T0 ; sets the minimum extruding and travel feed rate, mm/sec
M107
M862.3 P "MK3S" ; printer model check
M862.1 P0.4 ; nozzle diameter check
M115 U3.8.0 ; tell printer latest fw version
G90 ; use absolute coordinates
M83 ; extruder relative mode
M104 S215 ; set extruder temp
M140 S60 ; set bed temp
M190 S60 ; wait for bed temp
M109 S215 ; wait for extruder temp
G28 W ; home all without mesh bed level
G80 ; mesh bed leveling
G1 Y-3.0 F1000.0 ; go outside print area
G92 E0.0
G1 X60.0 E9.0 F1000.0 ; intro line
M73 Q0 S220
M73 P0 R218
G1 X100.0 E12.5 F1000.0 ; intro line
G92 E0.0
M221 S95
G21 ; set units to millimeters
G90 ; use absolute coordinates
M83 ; use relative distances for extrusion
M900 K30 ; Filament gcode
;BEFORE_LAYER_CHANGE
G92 E0.0
;0.2


G1 E-0.80000 F2100.00000
G1 Z0.600 F10800.000
;AFTER_LAYER_CHANGE
;0.2
G1 X70.378 Y68.902
G1 Z0.200
G1 E0.80000 F2100.00000
M204 S1000
G1 F1200
G1 X70.994 Y68.811 E0.01953
G1 X179.004 Y68.811 E3.38656
G1 X179.830 Y68.975 E0.02642
G1 X180.536 Y69.441 E0.02653
G1 X181.011 Y70.137 E0.02642
G1 X181.188 Y70.965 E0.02653
G1 X181.188 Y139.033 E2.13422
G1 X181.115 Y139.564 E0.01680
G1 X180.914 Y140.061 E0.01680
G1 X180.599 Y140.494 E0.01680
G1 X180.191 Y140.836 E0.01669
G1 X179.622 Y141.098 E0.01964
G1 X179.006 Y141.189 E0.01953
G1 X70.985 Y141.188 E3.38691
G1 X70.450 Y141.118 E0.01692
G1 X69.949 Y140.920 E0.01692
G1 X69.511 Y140.604 E0.01692
G1 X69.164 Y140.191 E0.01692
G1 X68.903 Y139.626 E0.01953
G1 X68.811 Y139.010 E0.01953
G1 X68.812 Y70.978 E2.13308
G1 X68.883 Y70.447 E0.01680
G1 X69.082 Y69.946 E0.01692
G1 X69.396 Y69.511 E0.01680
G1 X69.809 Y69.164 E0.01692
G1 X70.323 Y68.927 E0.01776
G1 F8640
G1 X70.994 Y68.811 E-0.15716
G1 X73.605 Y68.811 E-0.60284
G1 E-0.04000 F2100.00000
G1 Z0.800 F10800.000
G1 X89.663 Y103.163
G1 Z0.200
G1 E0.80000 F2100.00000
G1 F1200
G1 X102.337 Y103.163 E0.39739
G1 X102.337 Y109.837 E0.20926
G1 X89.663 Y109.837 E0.39739
G1 X89.663 Y103.223 E0.20738
G1 X90.040 Y103.540 F10800.000
G1 F1200
G1 X101.960 Y103.540 E0.37374
G1 X101.960 Y109.460 E0.18562
G1 X90.040 Y109.460 E0.37374
G1 X90.040 Y103.600 E0.18374
G1 X89.895 Y103.167 F10800.000
G1 F8640
G1 X93.331 Y103.583 E-0.76000
G1 E-0.04000 F2100.00000
G1 Z0.800 F10800.000
G1 X89.663 Y95.163
G1 Z0.200
G1 E0.80000 F2100.00000
G1 F1200
G1 X102.337 Y95.163 E0.39739
G1 X102.337 Y101.837 E0.20926
G1 X89.663 Y101.837 E0.39739
G1 X89.663 Y95.223 E0.20738
G1 X90.040 Y95.540 F10800.000
G1 F1200
G1 X101.960 Y95.540 E0.37374
G1 X101.960 Y101.460 E0.18562
G1 X90.040 Y101.460 E0.37374
G1 X90.040 Y95.600 E0.18374
G1 X89.895 Y95.167 F10800.000
G1 F8640
G1 X93.331 Y95.583 E-0.76000
G1 E-0.04000 F2100.00000
G1 Z0.800 F10800.000
G1 X89.663 Y87.163
G1 Z0.200
G1 E0.80000 F2100.00000
G1 F1200
G1 X102.337 Y87.163 E0.39739
G1 X102.337 Y93.837 E0.20926
G1 X89.663 Y93.837 E0.39739
G1 X89.663 Y87.223 E0.20738
G1 X90.040 Y87.540 F10800.000
G1 F1200
G1 X101.960 Y87.540 E0.37374
G1 X101.960 Y93.460 E0.18562
G1 X90.040 Y93.460 E0.37374
G1 X90.040 Y87.600 E0.18374
G1 X89.895 Y87.167 F10800.000
G1 F8640
G1 X93.331 Y87.583 E-0.76000
G1 E-0.04000 F2100.00000
G1 Z0.800 F10800.000
G1 X71.587 Y71.587
G1 Z0.200
G1 E0.80000 F2100.00000
G1 F1200
G1 X178.413 Y71.587 E3.34945
G1 X178.413 Y138.413 E2.09528
G1 X71.587 Y138.413 E3.34945
G1 X71.587 Y71.647 E2.09340
G1 X71.210 Y71.210 F10800.000
G1 F1200
G1 X178.790 Y71.210 E3.37310
G1 X178.790 Y138.790 E2.11892
M73 Q0 S219
M73 P0 R217
G1 X71.210 Y138.790 E3.37310
G1 X71.210 Y71.270 E2.11704
G1 X71.603 Y71.284 F10800.000
G1 F8640
G1 X74.501 Y71.268 E-0.76000
G1 E-0.04000 F2100.00000
G1 Z0.800 F10800.000
G1 X71.700 Y76.568
G1 Z0.200
G1 E0.80000 F2100.00000
G1 F1200
G1 X90.012 Y94.880 E0.81431
G1 X89.477 Y94.880 E0.01682
G1 X71.870 Y77.273 E0.78298
G1 X71.870 Y77.807 E0.01682
G1 X89.380 Y95.318 E0.77866
G1 X89.380 Y95.853 E0.01682
G1 X71.870 Y78.342 E0.77866
G1 X71.870 Y78.877 E0.01682
G1 X89.380 Y96.387 E0.77866
G1 X89.380 Y96.922 E0.01682
G1 X71.870 Y79.412 E0.77866
G1 X71.870 Y79.947 E0.01682
G1 X89.380 Y97.457 E0.77866
G1 X89.380 Y97.992 E0.01682
G1 X71.870 Y80.481 E0.77866
G1 X71.870 Y81.016 E0.01682
G1 X89.380 Y98.527 E0.77866
G1 X89.380 Y99.061 E0.01682
G1 X71.870 Y81.551 E0.77866
G1 X71.870 Y82.086 E0.01682
G1 X89.380 Y99.596 E0.77866
G1 X89.380 Y100.131 E0.01682
G1 X71.870 Y82.621 E0.77866
G1 X71.870 Y83.155 E0.01682
G1 X89.380 Y100.666 E0.77866
G1 X89.380 Y101.201 E0.01682
G1 X71.870 Y83.690 E0.77866
G1 X71.870 Y84.225 E0.01682
G1 X89.380 Y101.735 E0.77866
G1 X89.380 Y102.120 E0.01209
G1 X89.765 Y102.120 E0.01209
G1 X90.525 Y102.880 E0.03381
G1 X91.060 Y102.880 E0.01682
G1 X90.299 Y102.120 E0.03381
G1 X90.834 Y102.120 E0.01682
G1 X91.595 Y102.880 E0.03381
G1 X92.129 Y102.880 E0.01682
G1 X91.369 Y102.120 E0.03381
G1 X91.904 Y102.120 E0.01682
G1 X92.664 Y102.880 E0.03381
G1 X93.199 Y102.880 E0.01682
G1 X92.439 Y102.120 E0.03381
G1 X92.973 Y102.120 E0.01682
G1 X93.734 Y102.880 E0.03381
G1 X94.269 Y102.880 E0.01682
G1 X93.508 Y102.120 E0.03381
G1 X94.043 Y102.120 E0.01682
G1 X94.803 Y102.880 E0.03381
G1 X95.338 Y102.880 E0.01682
G1 X94.578 Y102.120 E0.03381
G1 X95.113 Y102.120 E0.01682
G1 X95.873 Y102.880 E0.03381
G1 X96.408 Y102.880 E0.01682
G1 X95.647 Y102.120 E0.03381
G1 X96.182 Y102.120 E0.01682
G1 X96.943 Y102.880 E0.03381
G1 X97.477 Y102.880 E0.01682
G1 X96.717 Y102.120 E0.03381
G1 X97.252 Y102.120 E0.01682
G1 X98.012 Y102.880 E0.03381
G1 X98.547 Y102.880 E0.01682
G1 X97.787 Y102.120 E0.03381
G1 X98.321 Y102.120 E0.01682
G1 X99.082 Y102.880 E0.03381
G1 X99.617 Y102.880 E0.01682
G1 X98.856 Y102.120 E0.03381
G1 X99.391 Y102.120 E0.01682
G1 X100.151 Y102.880 E0.03381
G1 X100.686 Y102.880 E0.01682
G1 X99.926 Y102.120 E0.03381
G1 X100.461 Y102.120 E0.01682
G1 X101.221 Y102.880 E0.03381
G1 X101.756 Y102.880 E0.01682
G1 X100.995 Y102.120 E0.03381
G1 X101.530 Y102.120 E0.01682
G1 X137.540 Y138.130 E1.60133
G1 X138.075 Y138.130 E0.01682
G1 X102.065 Y102.120 E1.60133
G1 X102.600 Y102.120 E0.01682
G1 X138.610 Y138.130 E1.60133
G1 X139.145 Y138.130 E0.01682
G1 X102.620 Y101.605 E1.62422
G1 X102.620 Y101.070 E0.01682
G1 X139.680 Y138.130 E1.64800
G1 X140.214 Y138.130 E0.01682
G1 X102.620 Y100.536 E1.67178
G1 X102.620 Y100.001 E0.01682
G1 X140.749 Y138.130 E1.69556
G1 X141.284 Y138.130 E0.01682
G1 X102.620 Y99.466 E1.71934
G1 X102.620 Y98.931 E0.01682
G1 X141.819 Y138.130 E1.74312
G1 X142.354 Y138.130 E0.01682
G1 X102.620 Y98.396 E1.76691
G1 X102.620 Y97.862 E0.01682
G1 X142.888 Y138.130 E1.79069
M73 Q0 S218
M73 P0 R216
G1 X143.423 Y138.130 E0.01682
G1 X102.620 Y97.327 E1.81447
G1 X102.620 Y96.792 E0.01682
G1 X143.958 Y138.130 E1.83825
G1 X144.493 Y138.130 E0.01682
G1 X102.620 Y96.257 E1.86203
G1 X102.620 Y95.722 E0.01682
G1 X145.197 Y138.300 E1.89336
G1 F8640
G1 X142.870 Y135.972 E-0.76000
G1 E-0.04000 F2100.00000
G1 Z0.800 F10800.000
G1 X137.175 Y138.300
G1 Z0.200
G1 E0.80000 F2100.00000
G1 F1200
G1 X102.620 Y103.744 E1.53664
G1 X102.620 Y104.279 E0.01682
G1 X136.471 Y138.130 E1.50531
G1 X135.936 Y138.130 E0.01682
G1 X102.620 Y104.814 E1.48153
G1 X102.620 Y105.349 E0.01682
G1 X135.401 Y138.130 E1.45774
G1 X134.867 Y138.130 E0.01682
G1 X102.620 Y105.883 E1.43396
G1 X102.620 Y106.418 E0.01682
G1 X134.332 Y138.130 E1.41018
G1 X133.797 Y138.130 E0.01682
G1 X102.620 Y106.953 E1.38640
G1 X102.620 Y107.488 E0.01682
G1 X133.262 Y138.130 E1.36262
G1 X132.727 Y138.130 E0.01682
G1 X102.620 Y108.023 E1.33884
G1 X102.620 Y108.557 E0.01682
G1 X132.193 Y138.130 E1.31505
G1 X131.658 Y138.130 E0.01682
G1 X102.620 Y109.092 E1.29127
G1 X102.620 Y109.627 E0.01682
G1 X131.123 Y138.130 E1.26749
G1 X130.588 Y138.130 E0.01682
G1 X102.578 Y110.120 E1.24558
G1 X102.043 Y110.120 E0.01682
G1 X130.053 Y138.130 E1.24558
G1 X129.519 Y138.130 E0.01682
G1 X101.508 Y110.120 E1.24558
G1 X100.973 Y110.120 E0.01682
G1 X128.984 Y138.130 E1.24558
G1 X128.449 Y138.130 E0.01682
G1 X100.439 Y110.120 E1.24558
G1 X99.904 Y110.120 E0.01682
G1 X127.914 Y138.130 E1.24558
G1 X127.379 Y138.130 E0.01682
G1 X99.369 Y110.120 E1.24558
G1 X98.834 Y110.120 E0.01682
G1 X126.845 Y138.130 E1.24558
G1 X126.310 Y138.130 E0.01682
G1 X98.299 Y110.120 E1.24558
G1 X97.765 Y110.120 E0.01682
G1 X125.775 Y138.130 E1.24558
G1 X125.240 Y138.130 E0.01682
G1 X97.230 Y110.120 E1.24558
M73 Q1 S217
M73 P1 R215
G1 X96.695 Y110.120 E0.01682
G1 X124.705 Y138.130 E1.24558
G1 X124.171 Y138.130 E0.01682
G1 X96.160 Y110.120 E1.24558
G1 X95.625 Y110.120 E0.01682
G1 X123.636 Y138.130 E1.24558
G1 X123.101 Y138.130 E0.01682
G1 X95.091 Y110.120 E1.24558
G1 X94.556 Y110.120 E0.01682
G1 X122.566 Y138.130 E1.24558
G1 X122.031 Y138.130 E0.01682
G1 X94.021 Y110.120 E1.24558
G1 X93.486 Y110.120 E0.01682
G1 X121.497 Y138.130 E1.24558
G1 X120.962 Y138.130 E0.01682
G1 X92.951 Y110.120 E1.24558
G1 X92.417 Y110.120 E0.01682
G1 X120.427 Y138.130 E1.24558
G1 X119.892 Y138.130 E0.01682
G1 X91.882 Y110.120 E1.24558
G1 X91.347 Y110.120 E0.01682
G1 X119.357 Y138.130 E1.24558
G1 X118.823 Y138.130 E0.01682
G1 X90.812 Y110.120 E1.24558
G1 X90.278 Y110.120 E0.01682
G1 X118.288 Y138.130 E1.24558
G1 X117.753 Y138.130 E0.01682
G1 X89.743 Y110.120 E1.24558
G1 X89.380 Y110.120 E0.01140
G1 X89.380 Y109.757 E0.01140
G1 X71.870 Y92.247 E0.77866
G1 X71.870 Y91.712 E0.01682
G1 X89.380 Y109.222 E0.77866
G1 X89.380 Y108.688 E0.01682
G1 X71.870 Y91.177 E0.77866
G1 X71.870 Y90.643 E0.01682
G1 X89.380 Y108.153 E0.77866
G1 X89.380 Y107.618 E0.01682
G1 X71.870 Y90.108 E0.77866
G1 X71.870 Y89.573 E0.01682
G1 X89.380 Y107.083 E0.77866
G1 X89.380 Y106.549 E0.01682
G1 X71.870 Y89.038 E0.77866
G1 X71.870 Y88.503 E0.01682
G1 X89.380 Y106.014 E0.77866
G1 X89.380 Y105.479 E0.01682
G1 X71.870 Y87.969 E0.77866
G1 X71.870 Y87.434 E0.01682
G1 X89.380 Y104.944 E0.77866
G1 X89.380 Y104.409 E0.01682
G1 X71.870 Y86.899 E0.77866
G1 X71.870 Y86.364 E0.01682
G1 X89.380 Y103.875 E0.77866
G1 X89.380 Y103.340 E0.01682
G1 X71.870 Y85.829 E0.77866
G1 X71.870 Y85.295 E0.01682
G1 X89.455 Y102.880 E0.78200
G1 X89.990 Y102.880 E0.01682
G1 X71.700 Y84.590 E0.81333
G1 F8640
G1 X74.028 Y86.918 E-0.76000
G1 E-0.04000 F2100.00000
G1 Z0.800 F10800.000
G1 X86.620 Y71.700
G1 Z0.200
G1 E0.80000 F2100.00000
G1 F1200
G1 X101.800 Y86.880 E0.67503
G1 X101.265 Y86.880 E0.01682
G1 X86.255 Y71.870 E0.66749
G1 X85.720 Y71.870 E0.01682
G1 X100.730 Y86.880 E0.66749
G1 X100.195 Y86.880 E0.01682
G1 X85.185 Y71.870 E0.66749
G1 X84.650 Y71.870 E0.01682
G1 X99.660 Y86.880 E0.66749
G1 X99.126 Y86.880 E0.01682
G1 X84.115 Y71.870 E0.66749
G1 X83.581 Y71.870 E0.01682
G1 X98.591 Y86.880 E0.66749
G1 X98.056 Y86.880 E0.01682
G1 X83.046 Y71.870 E0.66749
G1 X82.511 Y71.870 E0.01682
G1 X97.521 Y86.880 E0.66749
G1 X96.986 Y86.880 E0.01682
G1 X81.976 Y71.870 E0.66749
G1 X81.441 Y71.870 E0.01682
G1 X96.452 Y86.880 E0.66749
M73 Q1 S216
M73 P1 R214
G1 X95.917 Y86.880 E0.01682
G1 X80.907 Y71.870 E0.66749
G1 X80.372 Y71.870 E0.01682
G1 X95.382 Y86.880 E0.66749
G1 X94.847 Y86.880 E0.01682
G1 X79.837 Y71.870 E0.66749
G1 X79.302 Y71.870 E0.01682
G1 X94.312 Y86.880 E0.66749
G1 X93.778 Y86.880 E0.01682
G1 X78.767 Y71.870 E0.66749
G1 X78.233 Y71.870 E0.01682
G1 X93.243 Y86.880 E0.66749
G1 X92.708 Y86.880 E0.01682
G1 X77.698 Y71.870 E0.66749
G1 X77.163 Y71.870 E0.01682
G1 X92.173 Y86.880 E0.66749
G1 X91.638 Y86.880 E0.01682
G1 X76.628 Y71.870 E0.66749
G1 X76.093 Y71.870 E0.01682
G1 X91.104 Y86.880 E0.66749
G1 X90.569 Y86.880 E0.01682
G1 X75.559 Y71.870 E0.66749
G1 X75.024 Y71.870 E0.01682
G1 X90.034 Y86.880 E0.66749
G1 X89.499 Y86.880 E0.01682
G1 X74.489 Y71.870 E0.66749
G1 X73.954 Y71.870 E0.01682
G1 X89.380 Y87.296 E0.68597
G1 X89.380 Y87.831 E0.01682
G1 X73.419 Y71.870 E0.70975
G1 X72.885 Y71.870 E0.01682
G1 X89.380 Y88.365 E0.73353
G1 X89.380 Y88.900 E0.01682
G1 X72.350 Y71.870 E0.75731
G1 X71.870 Y71.870 E0.01509
G1 X71.870 Y71.925 E0.00172
G1 X89.380 Y89.435 E0.77866
G1 X89.380 Y89.970 E0.01682
G1 X71.870 Y72.460 E0.77866
G1 X71.870 Y72.994 E0.01682
G1 X89.380 Y90.505 E0.77866
G1 X89.380 Y91.039 E0.01682
G1 X71.870 Y73.529 E0.77866
G1 X71.870 Y74.064 E0.01682
G1 X89.380 Y91.574 E0.77866
G1 X89.380 Y92.109 E0.01682
G1 X71.870 Y74.599 E0.77866
G1 X71.870 Y75.133 E0.01682
G1 X89.380 Y92.644 E0.77866
G1 X89.380 Y93.179 E0.01682
G1 X71.870 Y75.668 E0.77866
G1 X71.870 Y76.203 E0.01682
G1 X89.380 Y93.713 E0.77866
G1 X89.380 Y94.120 E0.01278
G1 X89.787 Y94.120 E0.01278
G1 X90.547 Y94.880 E0.03381
G1 X91.082 Y94.880 E0.01682
G1 X90.321 Y94.120 E0.03381
G1 X90.856 Y94.120 E0.01682
G1 X91.617 Y94.880 E0.03381
G1 X92.151 Y94.880 E0.01682
G1 X91.391 Y94.120 E0.03381
G1 X91.926 Y94.120 E0.01682
G1 X92.686 Y94.880 E0.03381
G1 X93.221 Y94.880 E0.01682
G1 X92.461 Y94.120 E0.03381
G1 X92.995 Y94.120 E0.01682
G1 X93.756 Y94.880 E0.03381
G1 X94.290 Y94.880 E0.01682
G1 X93.530 Y94.120 E0.03381
G1 X94.065 Y94.120 E0.01682
G1 X94.825 Y94.880 E0.03381
G1 X95.360 Y94.880 E0.01682
G1 X94.600 Y94.120 E0.03381
G1 X95.135 Y94.120 E0.01682
G1 X95.895 Y94.880 E0.03381
G1 X96.430 Y94.880 E0.01682
G1 X95.669 Y94.120 E0.03381
G1 X96.204 Y94.120 E0.01682
G1 X96.964 Y94.880 E0.03381
G1 X97.499 Y94.880 E0.01682
G1 X96.739 Y94.120 E0.03381
G1 X97.274 Y94.120 E0.01682
G1 X98.034 Y94.880 E0.03381
G1 X98.569 Y94.880 E0.01682
G1 X97.809 Y94.120 E0.03381
G1 X98.343 Y94.120 E0.01682
G1 X99.104 Y94.880 E0.03381
G1 X99.638 Y94.880 E0.01682
G1 X98.878 Y94.120 E0.03381
G1 X99.413 Y94.120 E0.01682
G1 X100.173 Y94.880 E0.03381
G1 X100.708 Y94.880 E0.01682
G1 X99.948 Y94.120 E0.03381
G1 X100.483 Y94.120 E0.01682
G1 X101.243 Y94.880 E0.03381
G1 X101.778 Y94.880 E0.01682
G1 X101.017 Y94.120 E0.03381
G1 X101.552 Y94.120 E0.01682
G1 X145.562 Y138.130 E1.95707
G1 X146.097 Y138.130 E0.01682
G1 X102.087 Y94.120 E1.95707
G1 X102.620 Y94.118 E0.01676
G1 X146.632 Y138.130 E1.95716
G1 X147.167 Y138.130 E0.01682
G1 X102.620 Y93.583 E1.98094
G1 X102.620 Y93.048 E0.01682
G1 X147.702 Y138.130 E2.00472
G1 X148.236 Y138.130 E0.01682
G1 X102.620 Y92.514 E2.02851
G1 X102.620 Y91.979 E0.01682
G1 X148.771 Y138.130 E2.05229
G1 X149.306 Y138.130 E0.01682
G1 X102.620 Y91.444 E2.07607
G1 X102.620 Y90.909 E0.01682
G1 X149.841 Y138.130 E2.09985
M73 Q2 S215
M73 P2 R213
G1 X150.376 Y138.130 E0.01682
G1 X102.620 Y90.374 E2.12363
G1 X102.620 Y89.840 E0.01682
G1 X150.910 Y138.130 E2.14741
G1 X151.445 Y138.130 E0.01682
G1 X102.620 Y89.305 E2.17120
G1 X102.620 Y88.770 E0.01682
G1 X151.980 Y138.130 E2.19498
G1 X152.515 Y138.130 E0.01682
G1 X102.620 Y88.235 E2.21876
G1 X102.620 Y87.700 E0.01682
G1 X153.050 Y138.130 E2.24254
G1 X153.584 Y138.130 E0.01682
G1 X87.324 Y71.870 E2.94650
G1 X87.859 Y71.870 E0.01682
G1 X154.119 Y138.130 E2.94650
G1 X154.654 Y138.130 E0.01682
G1 X88.394 Y71.870 E2.94650
G1 X88.929 Y71.870 E0.01682
G1 X155.189 Y138.130 E2.94650
G1 X155.724 Y138.130 E0.01682
G1 X89.463 Y71.870 E2.94650
G1 X89.998 Y71.870 E0.01682
G1 X156.258 Y138.130 E2.94650
G1 X156.793 Y138.130 E0.01682
G1 X90.533 Y71.870 E2.94650
G1 X91.068 Y71.870 E0.01682
G1 X157.328 Y138.130 E2.94650
G1 X157.863 Y138.130 E0.01682
G1 X91.603 Y71.870 E2.94650
M73 Q2 S214
M73 P2 R212
G1 X92.137 Y71.870 E0.01682
G1 X158.398 Y138.130 E2.94650
G1 X158.932 Y138.130 E0.01682
G1 X92.672 Y71.870 E2.94650
G1 X93.207 Y71.870 E0.01682
G1 X159.467 Y138.130 E2.94650
G1 X160.002 Y138.130 E0.01682
G1 X93.742 Y71.870 E2.94650
G1 X94.277 Y71.870 E0.01682
G1 X160.537 Y138.130 E2.94650
G1 X161.072 Y138.130 E0.01682
G1 X94.811 Y71.870 E2.94650
G1 X95.346 Y71.870 E0.01682
G1 X161.606 Y138.130 E2.94650
G1 X162.141 Y138.130 E0.01682
G1 X95.881 Y71.870 E2.94650
G1 X96.416 Y71.870 E0.01682
