; generated by PrusaSlicer 2.1.0+win64 on 2019-11-21 at 22:00:29 UTC

; 

; external perimeters extrusion width = 0.60mm
; perimeters extrusion width = 0.50mm
; infill extrusion width = 0.50mm
; solid infill extrusion width = 0.50mm
; top infill extrusion width = 0.45mm
; first layer extrusion width = 0.42mm

M73 P0 R277
M73 Q0 S281
M201 X1000 Y1000 Z1000 E5000 ; sets maximum accelerations, mm/sec^2
M203 X200 Y200 Z12 E120 ; sets maximum feedrates, mm/sec
M204 P1250 R1250 T1250 ; sets acceleration (P, T) and retract acceleration (R), mm/sec^2
M205 X8.00 Y8.00 Z0.40 E1.50 ; sets the jerk limits, mm/sec
M205 S0 T0 ; sets the minimum extruding and travel feed rate, mm/sec
M107
M862.3 P "MK3S" ; printer model check
M862.1 P0.4 ; nozzle diameter check
M115 U3.8.0 ; tell printer latest fw version
G90 ; use absolute coordinates
M83 ; extruder relative mode
M104 S215 ; set extruder temp
M140 S60 ; set bed temp
M190 S60 ; wait for bed temp
M109 S215 ; wait for extruder temp
G28 W ; home all without mesh bed level
G80 ; mesh bed leveling
G1 Y-3.0 F1000.0 ; go outside print area
G92 E0.0
G1 X60.0 E9.0 F1000.0 ; intro line
M73 Q0 S281
M73 P0 R277
G1 X100.0 E12.5 F1000.0 ; intro line
G92 E0.0
M221 S95
G21 ; set units to millimeters
G90 ; use absolute coordinates
M83 ; use relative distances for extrusion
M900 K30 ; Filament gcode
;BEFORE_LAYER_CHANGE
G92 E0.0
;0.2


G1 E-0.80000 F2100.00000
G1 Z0.600 F10800.000
;AFTER_LAYER_CHANGE
;0.2
G1 X14.336 Y68.915
G1 Z0.200
G1 E0.80000 F2100.00000
M204 S1000
G1 F1200
G1 X14.998 Y68.811 E0.02100
G1 X235.004 Y68.811 E6.89813
G1 X235.837 Y68.978 E0.02664
G1 X236.542 Y69.447 E0.02653
G1 X237.016 Y70.147 E0.02653
G1 X237.188 Y70.980 E0.02664
G1 X237.188 Y139.048 E2.13422
G1 X237.070 Y139.711 E0.02112
G1 X236.754 Y140.309 E0.02123
G1 X236.270 Y140.783 E0.02123
G1 X235.664 Y141.085 E0.02123
G1 X235.002 Y141.189 E0.02100
G1 X14.985 Y141.188 E6.89847
G1 X14.310 Y141.077 E0.02146
G1 X13.703 Y140.762 E0.02146
G1 X13.222 Y140.276 E0.02146
G1 X12.915 Y139.664 E0.02146
G1 X12.811 Y139.002 E0.02100
G1 X12.812 Y70.956 E2.13354
G1 X12.930 Y70.289 E0.02123
G1 X13.246 Y69.691 E0.02123
G1 X13.730 Y69.217 E0.02123
G1 X14.282 Y68.941 E0.01935
G1 F8640
G1 X14.998 Y68.811 E-0.16792
G1 X17.562 Y68.811 E-0.59208
G1 E-0.04000 F2100.00000
G1 Z0.800 F10800.000
G1 X91.667 Y108.032
G1 Z0.200
G1 E0.80000 F2100.00000
G1 F1200
G1 X92.148 Y107.249 E0.02880
G1 X92.712 Y106.524 E0.02880
G1 X93.353 Y105.866 E0.02881
G1 X94.062 Y105.282 E0.02880
G1 X94.831 Y104.779 E0.02880
G1 X95.651 Y104.364 E0.02880
G1 X96.511 Y104.042 E0.02881
G1 X97.401 Y103.817 E0.02880
G1 X98.311 Y103.691 E0.02880
G1 X99.200 Y103.666 E0.02788
G1 X100.144 Y103.741 E0.02970
G1 X101.047 Y103.917 E0.02883
G1 X101.923 Y104.191 E0.02880
G1 X102.765 Y104.560 E0.02880
G1 X103.560 Y105.020 E0.02880
G1 X104.301 Y105.564 E0.02880
G1 X104.976 Y106.186 E0.02880
G1 X105.580 Y106.879 E0.02880
G1 X106.086 Y107.609 E0.02788
G1 X106.540 Y108.441 E0.02969
G1 X106.886 Y109.293 E0.02884
G1 X107.136 Y110.177 E0.02880
G1 X107.287 Y111.083 E0.02880
G1 X107.338 Y112.000 E0.02881
G1 X107.287 Y112.917 E0.02881
G1 X107.136 Y113.823 E0.02880
G1 X106.886 Y114.707 E0.02880
G1 X106.541 Y115.558 E0.02881
G1 X106.103 Y116.366 E0.02881
G1 X105.580 Y117.121 E0.02880
G1 X104.976 Y117.814 E0.02880
G1 X104.301 Y118.436 E0.02880
G1 X103.560 Y118.980 E0.02880
G1 X102.765 Y119.440 E0.02880
G1 X101.923 Y119.809 E0.02880
G1 X101.047 Y120.083 E0.02880
G1 X100.145 Y120.259 E0.02880
G1 X99.230 Y120.335 E0.02881
G1 X98.311 Y120.310 E0.02880
G1 X97.401 Y120.183 E0.02880
G1 X96.511 Y119.958 E0.02880
G1 X95.651 Y119.636 E0.02881
G1 X94.831 Y119.221 E0.02880
G1 X94.062 Y118.718 E0.02880
G1 X93.353 Y118.134 E0.02880
G1 X92.712 Y117.476 E0.02881
G1 X92.148 Y116.751 E0.02880
G1 X91.667 Y115.968 E0.02880
G1 X91.275 Y115.138 E0.02880
G1 X90.976 Y114.269 E0.02881
G1 X90.776 Y113.372 E0.02880
G1 X90.675 Y112.459 E0.02880
G1 X90.675 Y111.541 E0.02880
G1 X90.776 Y110.628 E0.02880
G1 X90.976 Y109.731 E0.02880
G1 X91.275 Y108.862 E0.02881
G1 X91.641 Y108.086 E0.02692
G1 X91.982 Y108.247 F10800.000
G1 F1200
G1 X92.458 Y107.464 E0.02872
G1 X92.997 Y106.772 E0.02750
G1 X93.609 Y106.143 E0.02750
G1 X94.286 Y105.586 E0.02750
G1 X95.020 Y105.106 E0.02750
G1 X95.802 Y104.710 E0.02749
G1 X96.624 Y104.403 E0.02750
G1 X97.474 Y104.187 E0.02750
G1 X98.342 Y104.067 E0.02750
G1 X99.190 Y104.044 E0.02659
G1 X100.093 Y104.115 E0.02839
G1 X100.954 Y104.283 E0.02751
G1 X101.791 Y104.545 E0.02750
G1 X102.594 Y104.897 E0.02750
G1 X103.354 Y105.336 E0.02750
G1 X104.060 Y105.855 E0.02750
G1 X104.706 Y106.449 E0.02750
G1 X105.282 Y107.111 E0.02750
G1 X105.765 Y107.808 E0.02659
G1 X106.199 Y108.602 E0.02839
G1 X106.529 Y109.415 E0.02751
G1 X106.767 Y110.259 E0.02750
G1 X106.912 Y111.124 E0.02750
G1 X106.960 Y112.000 E0.02750
G1 X106.912 Y112.876 E0.02750
G1 X106.767 Y113.741 E0.02750
G1 X106.529 Y114.585 E0.02750
G1 X106.199 Y115.397 E0.02750
G1 X105.781 Y116.169 E0.02750
G1 X105.282 Y116.889 E0.02750
G1 X104.706 Y117.551 E0.02750
G1 X104.060 Y118.145 E0.02750
G1 X103.354 Y118.664 E0.02750
G1 X102.594 Y119.103 E0.02750
G1 X101.791 Y119.455 E0.02750
G1 X100.954 Y119.717 E0.02750
G1 X100.093 Y119.885 E0.02749
G1 X99.219 Y119.957 E0.02750
G1 X98.342 Y119.933 E0.02750
G1 X97.474 Y119.813 E0.02750
G1 X96.624 Y119.597 E0.02750
G1 X95.802 Y119.290 E0.02750
G1 X95.020 Y118.894 E0.02750
G1 X94.286 Y118.414 E0.02750
G1 X93.609 Y117.857 E0.02750
G1 X92.997 Y117.228 E0.02750
G1 X92.458 Y116.536 E0.02750
G1 X91.999 Y115.789 E0.02750
G1 X91.625 Y114.996 E0.02750
G1 X91.340 Y114.166 E0.02750
G1 X91.148 Y113.310 E0.02750
G1 X91.052 Y112.439 E0.02750
G1 X91.052 Y111.561 E0.02750
G1 X91.148 Y110.690 E0.02750
G1 X91.340 Y109.834 E0.02750
G1 X91.625 Y109.004 E0.02750
G1 X91.957 Y108.301 E0.02439
G1 X91.772 Y107.907 F10800.000
G1 F8640
G1 X92.458 Y107.464 E-0.22528
G1 X92.997 Y106.772 E-0.20250
G1 X93.609 Y106.143 E-0.20252
G1 X94.042 Y105.786 E-0.12969
G1 E-0.04000 F2100.00000
G1 Z0.800 F10800.000
G1 X90.587 Y99.087
G1 Z0.200
G1 E0.80000 F2100.00000
G1 F1200
G1 X61.413 Y99.087 E0.91474
G1 X61.413 Y78.913 E0.63255
G1 X90.587 Y78.913 E0.91474
G1 X90.587 Y99.027 E0.63067
G1 X90.210 Y98.710 F10800.000
G1 F1200
G1 X61.790 Y98.710 E0.89109
G1 X61.790 Y79.290 E0.60890
G1 X90.210 Y79.290 E0.89109
G1 X90.210 Y98.650 E0.60702
G1 X90.337 Y99.089 F10800.000
G1 F8640
G1 X86.919 Y98.657 E-0.76000
G1 E-0.04000 F2100.00000
G1 Z0.800 F10800.000
G1 X60.886 Y109.293
G1 Z0.200
G1 E0.80000 F2100.00000
G1 F1200
G1 X61.136 Y110.177 E0.02880
G1 X61.287 Y111.083 E0.02880
G1 X61.338 Y112.000 E0.02881
G1 X61.287 Y112.917 E0.02881
G1 X61.136 Y113.823 E0.02880
G1 X60.886 Y114.707 E0.02880
G1 X60.541 Y115.558 E0.02881
G1 X60.103 Y116.366 E0.02881
G1 X59.580 Y117.121 E0.02880
G1 X58.976 Y117.814 E0.02880
G1 X58.301 Y118.436 E0.02880
G1 X57.560 Y118.980 E0.02880
G1 X56.765 Y119.440 E0.02880
G1 X55.923 Y119.809 E0.02880
G1 X55.047 Y120.083 E0.02880
G1 X54.145 Y120.259 E0.02880
G1 X53.230 Y120.335 E0.02881
G1 X52.311 Y120.310 E0.02880
G1 X51.401 Y120.183 E0.02880
G1 X50.511 Y119.958 E0.02880
G1 X49.651 Y119.636 E0.02881
G1 X48.831 Y119.221 E0.02880
G1 X48.062 Y118.718 E0.02880
G1 X47.353 Y118.134 E0.02880
G1 X46.712 Y117.476 E0.02881
G1 X46.148 Y116.751 E0.02880
G1 X45.667 Y115.968 E0.02880
G1 X45.275 Y115.138 E0.02880
G1 X44.976 Y114.269 E0.02881
G1 X44.776 Y113.372 E0.02880
G1 X44.675 Y112.459 E0.02880
G1 X44.675 Y111.541 E0.02880
G1 X44.776 Y110.628 E0.02880
G1 X44.976 Y109.731 E0.02880
G1 X45.275 Y108.862 E0.02881
G1 X45.667 Y108.032 E0.02880
G1 X46.148 Y107.249 E0.02880
G1 X46.712 Y106.524 E0.02880
G1 X47.353 Y105.866 E0.02881
G1 X48.062 Y105.282 E0.02880
G1 X48.831 Y104.779 E0.02880
G1 X49.651 Y104.364 E0.02880
G1 X50.511 Y104.042 E0.02881
G1 X51.401 Y103.817 E0.02880
G1 X52.311 Y103.691 E0.02880
G1 X53.200 Y103.666 E0.02788
G1 X54.144 Y103.741 E0.02969
G1 X55.047 Y103.917 E0.02883
G1 X55.923 Y104.191 E0.02880
G1 X56.765 Y104.560 E0.02880
G1 X57.560 Y105.020 E0.02880
G1 X58.301 Y105.564 E0.02880
G1 X58.976 Y106.186 E0.02880
G1 X59.580 Y106.879 E0.02880
G1 X60.086 Y107.609 E0.02788
G1 X60.540 Y108.441 E0.02969
G1 X60.864 Y109.237 E0.02696
G1 X60.514 Y109.379 F10800.000
G1 F1200
G1 X60.767 Y110.259 E0.02872
G1 X60.912 Y111.124 E0.02750
G1 X60.960 Y112.000 E0.02750
G1 X60.912 Y112.876 E0.02750
G1 X60.767 Y113.741 E0.02750
G1 X60.529 Y114.585 E0.02750
G1 X60.199 Y115.397 E0.02750
G1 X59.781 Y116.169 E0.02750
G1 X59.282 Y116.889 E0.02750
G1 X58.706 Y117.551 E0.02750
G1 X58.060 Y118.145 E0.02750
G1 X57.354 Y118.664 E0.02750
G1 X56.594 Y119.103 E0.02750
G1 X55.791 Y119.455 E0.02750
G1 X54.954 Y119.717 E0.02750
G1 X54.093 Y119.885 E0.02749
G1 X53.219 Y119.957 E0.02750
G1 X52.342 Y119.933 E0.02750
G1 X51.474 Y119.813 E0.02750
G1 X50.624 Y119.597 E0.02750
G1 X49.802 Y119.290 E0.02750
G1 X49.020 Y118.894 E0.02750
G1 X48.286 Y118.414 E0.02750
G1 X47.609 Y117.857 E0.02750
G1 X46.997 Y117.228 E0.02750
G1 X46.458 Y116.536 E0.02750
G1 X45.999 Y115.789 E0.02750
G1 X45.625 Y114.996 E0.02750
G1 X45.340 Y114.166 E0.02750
G1 X45.148 Y113.310 E0.02750
G1 X45.052 Y112.439 E0.02750
G1 X45.052 Y111.561 E0.02750
G1 X45.148 Y110.690 E0.02750
G1 X45.340 Y109.834 E0.02750
G1 X45.625 Y109.004 E0.02750
G1 X45.999 Y108.211 E0.02750
G1 X46.458 Y107.464 E0.02750
G1 X46.997 Y106.772 E0.02750
G1 X47.609 Y106.143 E0.02750
G1 X48.286 Y105.586 E0.02750
G1 X49.020 Y105.106 E0.02750
G1 X49.802 Y104.710 E0.02749
G1 X50.624 Y104.403 E0.02750
G1 X51.474 Y104.187 E0.02750
G1 X52.342 Y104.067 E0.02750
G1 X53.190 Y104.044 E0.02659
G1 X54.093 Y104.115 E0.02839
G1 X54.954 Y104.283 E0.02751
G1 X55.791 Y104.545 E0.02750
G1 X56.594 Y104.897 E0.02750
G1 X57.354 Y105.336 E0.02750
G1 X58.060 Y105.855 E0.02750
G1 X58.706 Y106.449 E0.02750
G1 X59.282 Y107.111 E0.02750
G1 X59.765 Y107.808 E0.02659
G1 X60.199 Y108.602 E0.02839
G1 X60.492 Y109.323 E0.02440
G1 X60.907 Y109.454 F10800.000
G1 F8640
G1 X60.767 Y110.259 E-0.22527
G1 X60.912 Y111.124 E-0.20250
G1 X60.960 Y112.000 E-0.20252
G1 X60.929 Y112.561 E-0.12971
G1 E-0.04000 F2100.00000
G1 Z0.800 F10800.000
G1 X140.276 Y99.872
G1 Z0.200
G1 E0.80000 F2100.00000
G1 F1200
G1 X140.175 Y98.959 E0.02880
G1 X140.175 Y98.041 E0.02880
G1 X140.276 Y97.128 E0.02880
G1 X140.476 Y96.231 E0.02880
G1 X140.775 Y95.362 E0.02881
G1 X141.167 Y94.532 E0.02880
G1 X141.648 Y93.749 E0.02880
G1 X142.212 Y93.024 E0.02880
G1 X142.853 Y92.366 E0.02881
G1 X143.562 Y91.782 E0.02880
G1 X144.331 Y91.279 E0.02880
G1 X145.151 Y90.864 E0.02880
G1 X146.011 Y90.542 E0.02881
G1 X146.901 Y90.317 E0.02880
G1 X147.811 Y90.191 E0.02880
G1 X148.694 Y90.166 E0.02769
G1 X149.644 Y90.241 E0.02987
G1 X150.547 Y90.417 E0.02884
G1 X151.423 Y90.691 E0.02880
G1 X152.265 Y91.060 E0.02880
G1 X153.060 Y91.520 E0.02880
G1 X153.801 Y92.064 E0.02880
G1 X154.476 Y92.686 E0.02880
G1 X155.080 Y93.379 E0.02880
G1 X155.603 Y94.134 E0.02880
G1 X156.041 Y94.942 E0.02881
G1 X156.386 Y95.793 E0.02881
G1 X156.636 Y96.677 E0.02880
G1 X156.787 Y97.583 E0.02880
G1 X156.838 Y98.500 E0.02881
G1 X156.787 Y99.417 E0.02881
G1 X156.636 Y100.323 E0.02880
G1 X156.386 Y101.207 E0.02880
G1 X156.041 Y102.058 E0.02881
G1 X155.603 Y102.866 E0.02881
G1 X155.080 Y103.621 E0.02880
G1 X154.476 Y104.314 E0.02880
G1 X153.801 Y104.936 E0.02880
G1 X153.089 Y105.459 E0.02769
G1 X152.266 Y105.939 E0.02987
G1 X151.423 Y106.309 E0.02884
G1 X150.547 Y106.583 E0.02880
G1 X149.645 Y106.759 E0.02880
G1 X148.730 Y106.835 E0.02881
G1 X147.811 Y106.810 E0.02880
G1 X146.901 Y106.683 E0.02880
G1 X146.011 Y106.458 E0.02880
G1 X145.151 Y106.136 E0.02881
G1 X144.331 Y105.721 E0.02880
G1 X143.562 Y105.218 E0.02880
G1 X142.853 Y104.634 E0.02880
G1 X142.212 Y103.976 E0.02881
G1 X141.648 Y103.251 E0.02880
G1 X141.167 Y102.468 E0.02880
G1 X140.775 Y101.638 E0.02880
G1 X140.476 Y100.769 E0.02881
G1 X140.289 Y99.931 E0.02692
G1 X140.657 Y99.849 F10800.000
G1 F1200
G1 X140.552 Y98.939 E0.02872
G1 X140.552 Y98.061 E0.02750
G1 X140.648 Y97.190 E0.02750
G1 X140.840 Y96.334 E0.02750
G1 X141.125 Y95.504 E0.02750
G1 X141.499 Y94.711 E0.02750
G1 X141.958 Y93.964 E0.02750
G1 X142.497 Y93.272 E0.02750
G1 X143.109 Y92.643 E0.02750
G1 X143.786 Y92.086 E0.02750
G1 X144.520 Y91.606 E0.02750
G1 X145.302 Y91.210 E0.02749
G1 X146.124 Y90.903 E0.02750
G1 X146.974 Y90.687 E0.02750
G1 X147.842 Y90.567 E0.02750
M73 Q0 S280
G1 X148.685 Y90.544 E0.02641
G1 X149.593 Y90.615 E0.02857
G1 X150.454 Y90.783 E0.02751
G1 X151.291 Y91.045 E0.02750
G1 X152.094 Y91.397 E0.02750
G1 X152.854 Y91.836 E0.02750
G1 X153.560 Y92.355 E0.02750
G1 X154.206 Y92.949 E0.02750
G1 X154.782 Y93.611 E0.02750
G1 X155.281 Y94.331 E0.02750
G1 X155.699 Y95.103 E0.02750
G1 X156.029 Y95.915 E0.02750
G1 X156.267 Y96.759 E0.02750
G1 X156.412 Y97.624 E0.02750
G1 X156.460 Y98.500 E0.02750
G1 X156.412 Y99.376 E0.02750
G1 X156.267 Y100.241 E0.02750
M73 P0 R276
G1 X156.029 Y101.085 E0.02750
G1 X155.699 Y101.897 E0.02750
G1 X155.281 Y102.669 E0.02750
G1 X154.782 Y103.389 E0.02750
G1 X154.206 Y104.051 E0.02750
G1 X153.560 Y104.645 E0.02750
G1 X152.882 Y105.144 E0.02641
G1 X152.095 Y105.602 E0.02856
G1 X151.291 Y105.955 E0.02751
G1 X150.454 Y106.217 E0.02750
G1 X149.593 Y106.385 E0.02750
G1 X148.719 Y106.457 E0.02750
G1 X147.842 Y106.433 E0.02750
G1 X146.974 Y106.313 E0.02750
G1 X146.124 Y106.097 E0.02750
G1 X145.302 Y105.790 E0.02750
G1 X144.520 Y105.394 E0.02750
G1 X143.786 Y104.914 E0.02750
G1 X143.109 Y104.357 E0.02750
G1 X142.497 Y103.728 E0.02750
G1 X141.958 Y103.036 E0.02750
G1 X141.499 Y102.289 E0.02750
G1 X141.125 Y101.496 E0.02750
G1 X140.840 Y100.666 E0.02750
G1 X140.670 Y99.907 E0.02439
G1 X140.282 Y99.710 F10800.000
G1 F8640
G1 X140.552 Y98.939 E-0.22529
G1 X140.552 Y98.061 E-0.20251
G1 X140.648 Y97.190 E-0.20251
G1 X140.771 Y96.642 E-0.12969
G1 E-0.04000 F2100.00000
G1 Z0.800 F10800.000
G1 X158.775 Y92.638
G1 Z0.200
G1 E0.80000 F2100.00000
G1 F1200
G1 X158.476 Y91.769 E0.02881
G1 X158.276 Y90.872 E0.02880
G1 X158.175 Y89.959 E0.02880
G1 X158.175 Y89.041 E0.02880
G1 X158.276 Y88.128 E0.02880
G1 X158.476 Y87.231 E0.02880
G1 X158.775 Y86.362 E0.02881
G1 X159.167 Y85.532 E0.02880
G1 X159.648 Y84.749 E0.02880
G1 X160.212 Y84.024 E0.02880
G1 X160.853 Y83.366 E0.02881
G1 X161.562 Y82.782 E0.02880
G1 X162.331 Y82.279 E0.02880
G1 X163.151 Y81.864 E0.02880
G1 X164.011 Y81.542 E0.02881
G1 X164.901 Y81.317 E0.02880
G1 X165.811 Y81.191 E0.02880
G1 X166.694 Y81.166 E0.02769
G1 X167.644 Y81.241 E0.02987
G1 X168.547 Y81.417 E0.02884
G1 X169.423 Y81.691 E0.02880
G1 X170.265 Y82.060 E0.02880
G1 X171.060 Y82.520 E0.02880
G1 X171.801 Y83.064 E0.02880
G1 X172.476 Y83.686 E0.02880
G1 X173.080 Y84.379 E0.02880
G1 X173.603 Y85.134 E0.02880
G1 X174.041 Y85.942 E0.02881
G1 X174.386 Y86.793 E0.02881
G1 X174.636 Y87.677 E0.02880
G1 X174.787 Y88.583 E0.02880
G1 X174.838 Y89.500 E0.02881
G1 X174.787 Y90.417 E0.02881
G1 X174.636 Y91.323 E0.02880
G1 X174.386 Y92.207 E0.02880
G1 X174.041 Y93.058 E0.02881
G1 X173.603 Y93.866 E0.02881
G1 X173.080 Y94.621 E0.02880
G1 X172.476 Y95.314 E0.02880
G1 X171.801 Y95.936 E0.02880
G1 X171.089 Y96.459 E0.02769
G1 X170.266 Y96.939 E0.02987
G1 X169.423 Y97.309 E0.02884
G1 X168.547 Y97.583 E0.02880
G1 X167.645 Y97.759 E0.02880
G1 X166.730 Y97.835 E0.02881
G1 X165.811 Y97.810 E0.02880
G1 X164.901 Y97.683 E0.02880
G1 X164.011 Y97.458 E0.02880
G1 X163.151 Y97.136 E0.02881
G1 X162.331 Y96.721 E0.02880
G1 X161.562 Y96.218 E0.02880
G1 X160.853 Y95.634 E0.02880
G1 X160.212 Y94.976 E0.02881
G1 X159.648 Y94.251 E0.02880
G1 X159.167 Y93.468 E0.02880
G1 X158.800 Y92.692 E0.02692
G1 X159.141 Y92.531 F10800.000
G1 F1200
G1 X158.840 Y91.666 E0.02872
G1 X158.648 Y90.810 E0.02750
G1 X158.552 Y89.939 E0.02750
G1 X158.552 Y89.061 E0.02750
G1 X158.648 Y88.190 E0.02750
G1 X158.840 Y87.334 E0.02750
G1 X159.125 Y86.504 E0.02750
G1 X159.499 Y85.711 E0.02750
G1 X159.958 Y84.964 E0.02750
G1 X160.497 Y84.272 E0.02750
G1 X161.109 Y83.643 E0.02750
G1 X161.786 Y83.086 E0.02750
G1 X162.520 Y82.606 E0.02750
G1 X163.302 Y82.210 E0.02749
G1 X164.124 Y81.903 E0.02750
G1 X164.974 Y81.687 E0.02750
G1 X165.842 Y81.567 E0.02750
G1 X166.685 Y81.544 E0.02641
